svgs/1F44B-1F3FD.svg

<svg xmlns="http://www.w3.org/2000/svg" version="1.1" xmlns:xlink="http://www.w3.org/1999/xlink" preserveAspectRatio="none" x="0px" y="0px" width="72px" height="72px" viewBox="0 0 72 72">
<defs>
<g id="Layer0_0_MEMBER_0_FILL">
<path fill="#CC9970" stroke="none" d="
M 91.45 35.25
Q 90 39.85 91.65 45.1
L 97.2 60.45
Q 97.8 61.75 96.65 62.75 95.45 63.8 94.35 62.95 91.5 60.6 85.5 54.5
L 80.05 48.9
Q 51.25 19.6 49.6 18.1 46.95 15.6 44.25 14.9 41.25 14.1 38.95 15.75 36.45 17.65 36.1 20.2 35.7 22.9 37.95 25.85 38.5 26.55 51.05 39.9 57.35 46.55 63.55 53.1 64.65 54.25 63.75 55.3 62.9 56.35 61.7 55.25
L 29.55 21.65
Q 27.15 19.05 23.85 18.6 20.55 18.2 18.3 20.3 16.1 22.4 16.2 25.4 16.25 28.45 18.65 31.1 19.7 32.2 50.05 64.5 51.3 65.75 50.2 66.75 50 67 49.65 67.1 48.9 67.25 48.2 66.5
L 21 38.1
Q 18.55 35.6 15.95 35.05 13 34.4 10.7 36.55 8.4 38.65 8.3 41.7 8.2 44.9 10.65 47.35
L 39.2 77.5 39.55 78.2
Q 39.75 79 39.1 79.6 38.4 80.25 37.6 79.9
L 36.9 79.4
Q 32.3 74.5 27.5 69.5 17.95 59.5 17.2 58.95 12.3 55.35 8.25 59.5 3.9 64 8.85 70.05 38.65 101.6 40.3 103.25
L 47.95 110.35
Q 56.6 118 61.65 121.05 66 123.65 69.35 124.8 74.3 126.5 79.05 126.5 84.3 126.6 89.55 124.65 94.55 122.75 99 119.45 100.25 118.55 101.1 117.75
L 103.05 116.2
Q 104.4 115.05 106.9 112.65 110.4 109.15 113.45 105 116.4 100.9 118.3 96.85 120.2 92.9 121.05 88.75 121.85 84.95 121.7 81.55 121.65 79.25 120.9 76.15 120.4 74.35 119.7 72.85
L 113.4 55.65 113.4 55.7 103.35 28.95
Q 102.75 27.15 100.95 26.65 99.1 26.15 97.5 27.3 92.95 30.55 91.45 35.25 Z"/>
</g>

<g id="Layer0_0_MEMBER_1_FILL">
<path fill="#99674F" stroke="none" d="
M 82.2 93.65
Q 82.75 93.95 83.1 93.75 84.1 93.5 83.9 92.1
L 83.45 90.75
Q 77.6 77.95 82.15 66.2 83.55 62.55 85.85 59.4 87 57.85 87.85 57
L 85.45 54.45
Q 76.15 64.9 77.2 78.75 77.7 85.7 80.1 90.6 81.1 93.05 82.2 93.65 Z"/>
</g>

<path id="Layer0_1_1_STROKES" stroke="#444444" stroke-width="2" stroke-linejoin="miter" stroke-linecap="round" stroke-miterlimit="10" fill="none" d="
M 35.578125 5.7375
L 37.603125 6.3843749999999995
Q 39.99375 7.453125 41.878125000000004 9.478125 43.762499999999996 11.53125 45.225 14.428125 45.956250000000004 15.862499999999999 46.293749999999996 16.903125"/>

<path id="Layer0_2_1_STROKES" stroke="#444444" stroke-width="2" stroke-linejoin="miter" stroke-linecap="round" stroke-miterlimit="10" fill="none" d="
M 43.4375 1.96875
L 45.068749999999994 3.09375
Q 46.98125 4.6125 48.303124999999994 6.75 49.625 8.887500000000001 50.412499999999994 11.700000000000001 50.80625 13.106250000000001 50.91875 14.090625000000001"/>

<path id="Layer0_3_1_STROKES" stroke="#444444" stroke-width="2" stroke-linejoin="miter" stroke-linecap="round" stroke-miterlimit="10" fill="none" d="
M 20.08125 62.296875
Q 19.265625 62.353125 17.971875 62.1 15.4125 61.565625000000004 13.134375 59.990625 10.856250000000001 58.415625 8.803125 55.9125
L 7.2 53.71875"/>

<path id="Layer0_4_1_STROKES" stroke="#444444" stroke-width="2" stroke-linejoin="miter" stroke-linecap="round" stroke-miterlimit="10" fill="none" d="
M 17.16875 67.58749999999999
Q 16.409374999999997 67.61562500000001 15.2 67.390625 12.809375 66.96875 10.615625 65.75937499999999 8.421874999999998 64.55 6.36875 62.46875
L 4.737500000000001 60.640625"/>
</defs>

<g id="Layer_1">
<g transform="matrix( 0.5625, 0, 0, 0.5625, 0,0) ">
<use xlink:href="#Layer0_0_MEMBER_0_FILL"/>
</g>

<g transform="matrix( 0.5625, 0, 0, 0.5625, 0,0) ">
<use xlink:href="#Layer0_0_MEMBER_1_FILL"/>
</g>

<g transform="matrix( 0.5625, 0, 0, 0.5625, 0,0) ">
<use xlink:href="#Layer0_1_1_STROKES" transform="matrix( 1.77777099609375, 0, 0, 1.77777099609375, 0,0) "/>
</g>

<g transform="matrix( 0.5625, 0, 0, 0.5625, -0.1,0) ">
<use xlink:href="#Layer0_2_1_STROKES" transform="matrix( 1.77777099609375, 0, 0, 1.77777099609375, 0.15,0) "/>
</g>

<g transform="matrix( 0.5625, 0, 0, 0.5625, 0,0) ">
<use xlink:href="#Layer0_3_1_STROKES" transform="matrix( 1.77777099609375, 0, 0, 1.77777099609375, 0,0) "/>
</g>

<g transform="matrix( 0.5625, 0, 0, 0.5625, -0.55,-0.25) ">
<use xlink:href="#Layer0_4_1_STROKES" transform="matrix( 1.77777099609375, 0, 0, 1.77777099609375, 0.95,0.4) "/>
</g>
</g>
</svg>

<svg xmlns="http://www.w3.org/2000/svg" xmlns:xlink="http://www.w3.org/1999/xlink" preserveAspectRatio="none" viewBox="0 0 72 72"><defs><path id="a" fill="#CC9970" d="M91.45 35.25q-1.45 4.6.2 9.85l5.55 15.35q.6 1.3-.55 2.3-1.2 1.05-2.3.2-2.85-2.35-8.85-8.45l-5.45-5.6Q51.25 19.6 49.6 18.1q-2.65-2.5-5.35-3.2-3-.8-5.3.85-2.5 1.9-2.85 4.45-.4 2.7 1.85 5.65.55.7 13.1 14.05 6.3 6.65 12.5 13.2 1.1 1.15.2 2.2-.85 1.05-2.05-.05l-32.15-33.6q-2.4-2.6-5.7-3.05-3.3-.4-5.55 1.7-2.2 2.1-2.1 5.1.05 3.05 2.45 5.7 1.05 1.1 31.4 33.4 1.25 1.25.15 2.25-.2.25-.55.35-.75.15-1.45-.6L21 38.1q-2.45-2.5-5.05-3.05-2.95-.65-5.25 1.5-2.3 2.1-2.4 5.15-.1 3.2 2.35 5.65L39.2 77.5l.35.7q.2.8-.45 1.4-.7.65-1.5.3l-.7-.5q-4.6-4.9-9.4-9.9-9.55-10-10.3-10.55-4.9-3.6-8.95.55-4.35 4.5.6 10.55 29.8 31.55 31.45 33.2l7.65 7.1q8.65 7.65 13.7 10.7 4.35 2.6 7.7 3.75 4.95 1.7 9.7 1.7 5.25.1 10.5-1.85 5-1.9 9.45-5.2 1.25-.9 2.1-1.7l1.95-1.55q1.35-1.15 3.85-3.55 3.5-3.5 6.55-7.65 2.95-4.1 4.85-8.15 1.9-3.95 2.75-8.1.8-3.8.65-7.2-.05-2.3-.8-5.4-.5-1.8-1.2-3.3l-6.3-17.2v.05l-10.05-26.75q-.6-1.8-2.4-2.3-1.85-.5-3.45.65-4.55 3.25-6.05 7.95z"/><path id="b" fill="#99674F" d="M82.2 93.65q.55.3.9.1 1-.25.8-1.65l-.45-1.35q-5.85-12.8-1.3-24.55 1.4-3.65 3.7-6.8 1.15-1.55 2-2.4l-2.4-2.55q-9.3 10.45-8.25 24.3.5 6.95 2.9 11.85 1 2.45 2.1 3.05z"/><path id="c" fill="none" stroke="#444" stroke-linecap="round" stroke-linejoin="miter" stroke-miterlimit="10" stroke-width="2" d="M35.578 5.737l2.025.647q2.39 1.07 4.275 3.094 1.884 2.053 3.347 4.95.731 1.434 1.069 2.475"/><path id="d" fill="none" stroke="#444" stroke-linecap="round" stroke-linejoin="miter" stroke-miterlimit="10" stroke-width="2" d="M43.438 1.969l1.63 1.125q1.913 1.518 3.235 3.656 1.322 2.138 2.11 4.95.393 1.406.506 2.39"/><path id="e" fill="none" stroke="#444" stroke-linecap="round" stroke-linejoin="miter" stroke-miterlimit="10" stroke-width="2" d="M20.081 62.297q-.815.056-2.11-.197-2.559-.534-4.837-2.11-2.278-1.574-4.33-4.078L7.2 53.72"/><path id="f" fill="none" stroke="#444" stroke-linecap="round" stroke-linejoin="miter" stroke-miterlimit="10" stroke-width="2" d="M17.169 67.587q-.76.029-1.969-.196-2.39-.422-4.584-1.632-2.194-1.209-4.247-3.29L4.738 60.64"/></defs><use transform="scale(.5625)" xlink:href="#a"/><use transform="scale(.5625)" xlink:href="#b"/><use xlink:href="#c"/><use transform="matrix(1 0 0 1 -.016 0)" xlink:href="#d"/><use xlink:href="#e"/><use transform="matrix(1 0 0 1 -.016 -.025)" xlink:href="#f"/></svg>
